!!!!SEGMENT: pl-wnifc--6021-n--005_grem-tomasz--thema-z-waryacyami.krn
!!!cenid: 18xx:3916
!!!COM: Grem, Tomasz
!!!COM-rismID: pe50044925
!!!CDT:
!!!CNT:
!!!OTL: Thema z Waryacyami
!!!PDT:
!!!AGN:
!!!SMS-siglum: PL-Wnifc
!!!SMS-shelfmark: 6021/n
!!!SMS-shelfwork: 005 W
!!!SMS-variant:
!!!SMS-altvar:
!!!NIFC-rismSourceID: 1001134154
!!!NIFC-rismChildID: 1001134196
!!!NIFC-islandoraID: nifc:212586
!!!URL-pdf-islandora: https://repozytorium.nifc.pl/islandora/object/nifc%3A212586/datastream/PDF/view
!!!URL-scan: https://polish.musicsources.pl/pl/lokalizacje/galeria/druki-muzyczne/16848 @EN{Scan on Polish Music Sources Website} @PL{Skany w portalu Dziedzictwo Muzyki Polskiej w otwartym dostępie}
!!!IIIF:
!!!ONB-nifc: UWAGA: s. 12-17
!!!AIN: 2 piano
!!!key: G
**kern	**kern	**dynam
*part2	*part1	*part1
*staff2	*staff1	*
*I"[Piano]	*I"[Piano]	*
*I'pf	*I'pf	*
*ICklav	*ICklav	*
*Ipiano	*Ipiano	*
*>[A,B,B1,B,B2,C,C1,C,C2,D]	*>[A,B,B1,B,B2,C,C1,C,C2,D]	*>[A,B,B1,B,B2,C,C1,C,C2,D]
*>A	*>A	*>A
*clefF4	*clefG2	*
*k[f#]	*k[f#]	*
*G:	*G:	*
*M2/4	*M2/4	*
=1	=1	=1
!	!LO:TX:b:i:t=Thema.	!
!	!LO:TX:a:B:t=Andante	!
4GG/ 4G	4g/ 4b	.
!	!LO:TX:a:i:t=z Waryacyami.	!
4GG/ 4G	(8a/L 8cc	.
.	8f#/J) 8a	.
=2	=2	=2
4GG/ 4G	(8.b\L 8.dd	.
.	16cc\Jk 16ee	.
4r	4b\) 4dd	.
=3	=3	=3
4GG/ 4G	8.b\L 8.dd	.
.	16cc\Jk 16ee	.
8C/L	(16b\LL 16dd	.
.	16a\) 16cc	.
8C#X/J	(16a\ 16cc	.
.	16g\JJ) 16b	.
=4	=4	=4
!LO:TX:t=P:problem:mixed beam	!	!
8D\L	(4g/ 4b	.
8DD/J	.	.
(16d\LL	8f#/) 8a	.
16c\	.	.
16B\	8r	.
16A\JJ)	.	.
=5	=5	=5
!	!LO:TX:a:i:t=przez P&colon; Tomaſza Grem.	!
4GG/ 4G	4g/ 4b	.
4DD/ 4D	8a/L 8cc	.
.	8f#/J 8a	.
=6	=6	=6
4BBB/ 4BB	4.d/ 4.g 4.dd	.
4CC/ 4C	.	.
.	8e/ 8a 8cc	.
=7	=7	=7
4DD/ 4D	4d/ 4g 4b	.
4DD/ 4D	4c/ 4f# 4a	.
=8	=8	=8
8GG/L	2B/ 2d 2g	.
8G\J	.	.
4GG/	.	.
=9:|!	=9:|!	=9:|!
2DD/ 2D	4f#/ 4a	.
.	(8.b/L 8.dd	.
.	16a/Jk) 16cc	.
!!LO:LB:g=original	!	!
=10	=10	=10
[2GG/ 2G	8g/L 8b	.
.	(8ee\J 8gg	.
.	8dd\L 8ff#	.
.	8cc\J) 8ee	.
=11	=11	=11
*	*^	*
4GG/] 4G	8.dd/L	4b\	.
.	16dd#X/Jk	.	.
4CC/ 4C	8.cc/L 8.ee	4rcyy	.
.	16a/Jk 16cc	.	.
*	*v	*v	*
=12	=12	=12
4DD/ 4D	4g/ 4b	.
.	16qqcc/LL	.
.	16qqb/JJ	.
(16d\LL	8f#/ 8a	.
16c\	.	.
16B\	8r	.
16A\JJ)	.	.
=13	=13	=13
4GG/ 4G	4g/ 4b	.
4DD/ 4D	(8a/L 8cc	.
.	8f#/J) 8a	.
=14	=14	=14
4BBB/ 4BB	4.d/ 4.g 4.dd	.
4CC/ 4C	.	.
.	8e/ 8a 8cc	.
=15	=15	=15
4DD/ 4D	4d/ 4g 4b	.
4DD/ 4D	4c/ 4f# 4a	.
=16	=16	=16
8GG/L	2B/ 2d 2g	.
8G\J	.	.
4GG/	.	.
!!LO:LB:g=original	!	!
==17	==17	==17
*>B	*>B	*>B
*clefF4	*clefG2	*
*k[f#]	*k[f#]	*
*M2/4	*M2/4	*
!	!LO:TX:a:B:t=War. 1	!
8GG/L	4b\ 4dd 4gg	.
(16AA/L	.	.
16BB/JJ	.	.
16C/LL	8.cc\L 8.ee	.
16D/	.	.
16E/)	.	.
16F#/JJ	16b\Jk 16dd	.
=18	=18	=18
16G\LL	8.b\L 8.dd	.
16A\	.	.
16B\	.	.
16c\JJ	16a\Jk 16cc	.
16d\LL	8g\ 8b	.
16e\	.	.
16f#\	8r	.
16g\JJ	.	.
=19	=19	=19
16f#\LL	8.b\L 8.dd	.
16g\	.	.
16e\	.	.
16c\JJ	16cc\Jk 16ee	.
16c\LL	8a\L 8cc	.
16C/	.	.
16c#X\	8g\J 8b	.
16C/JJ	.	.
=20	=20	=20
16d\LL	(4g/ 4b	.
16e\	.	.
16d\	.	.
16c#X\JJ	.	.
16d\LL	8f#/) 8a	.
16cn\	.	.
16B\	8r	.
16A\JJ	.	.
=21	=21	=21
16r	4b\ 4dd 4gg	.
16GG/LL	.	.
(16AA/	.	.
16BB/JJ	.	.
16C/LL	8.cc\L 8.ee	.
16D/	.	.
16E/	.	.
16F#/JJ)	16b\Jk 16dd	.
=22	=22	=22
16G\LL	8.b\L 8.dd	.
16A\	.	.
16B\	.	.
16c\JJ	16a\Jk 16cc	.
16d\LL	8g/ 8b	.
16e\	.	.
16f#\	8r	.
16g\JJ	.	.
=23	=23	=23
16r	4g/ 4b	.
(16DD/LL	.	.
16CC#X/	.	.
16DD/JJ)	.	.
!!LO:LB:g=original	!	!
(16DD#X/LL	4d/ 4a	.
16EE/	.	.
16FFn/	.	.
16FF#X/JJ)	.	.
=24	=24	=24
*>B1	*>B1	*>B1
16GG/LL	2B/ 2d 2g	.
16BB/	.	.
16D/	.	.
16G/JJ	.	.
16B\LL	.	.
16G\	.	.
16D\	.	.
16BB\JJ	.	.
=25:|!	=25:|!	=25:|!
*>B2	*>B2	*>B2
16GG/LL	2B/ 2d 2g	.
16BB/	.	.
16D/	.	.
16G/JJ	.	.
16GG/LL	.	.
16AA/	.	.
16BB/	.	.
16C#X/JJ	.	.
=26!|:	=26!|:	=26!|:
*>C	*>C	*>C
16D/LL	4f#/ 4a	.
16DD/	.	.
16FF#/	.	.
16AA/JJ	.	.
16D/LL	8.f#/L 8.dd	.
16AA/	.	.
16FF#/	.	.
16DD/JJ	16a/Jk 16cc	.
=27	=27	=27
16r	8g/L 8b	.
16GG/LL	.	.
16AA/	8ee\J 8gg	.
16BB/JJ	.	.
16C/LL	8dd\L 8ff#	.
16D/	.	.
16E/	8cc\J 8ee	.
16F#/JJ	.	.
=28	=28	=28
16G/LL	8.b/L 8.dd	.
16D/	.	.
16BB/	.	.
16GG/JJ	16dd#X/Jk	.
!LO:TX:t=P:problem:mixed beam	!	!
16C/LL	8.cc/L 8.ee	.
16CC/	.	.
16c\	.	.
16C/JJ	16a/Jk 16cc	.
=29	=29	=29
16d\LL	(4g/ 4b	.
16e\	.	.
16d\	.	.
16c#X\JJ	.	.
16d\LL	8f#/) 8a	.
16cn\	.	.
16B\	8r	.
16A\JJ	.	.
!!LO:PB:g=original	!	!
=30	=30	=30
16r	4b\ 4dd 4gg	.
16GG/LL	.	.
16AA/	.	.
16BB/JJ	.	.
16C/LL	8.cc\L 8.ee	.
16D/	.	.
16E/	.	.
16F#/JJ	16b\Jk 16dd	.
=31	=31	=31
16G\LL	8.b\L 8.dd	.
16A\	.	.
16B\	.	.
16c\JJ	16a\Jk 16cc	.
16d\LL	8g/ 8b	.
16e\	.	.
16f#\	8r	.
16g\JJ	.	.
=32	=32	=32
16r	4g/ 4b	.
(16DD/LL	.	.
16CC#X/	.	.
16DD/JJ	.	.
16DD#X/LL	4d/ 4a	.
16EE/	.	.
16FFn/	.	.
16FF#X/JJ)	.	.
=33	=33	=33
*>C1	*>C1	*>C1
16GG/LL	2B/ 2d 2g	.
16BB/	.	.
16D/	.	.
16G/JJ	.	.
16GG/LL	.	.
16AA/	.	.
16BB/	.	.
16C#X/JJ	.	.
=34:|!	=34:|!	=34:|!
*>C2	*>C2	*>C2
16GG/LL	2B/ 2d 2g	.
16BB/	.	.
16D/	.	.
16G/JJ	.	.
8GG/	.	.
8r	.	.
==35	==35	==35
*>D	*>D	*>D
*clefF4	*clefG2	*
*k[f#]	*k[f#]	*
*M2/4	*M2/4	*
!	!LO:TX:a:B:t=War. 2	!
8r	16b\LL	.
.	32g\L	.
.	32a\JJJ	.
.	16qcc/	.
8G\ 8B 8d	16b\LL	.
.	32a\L	.
.	32g\JJJ	.
8r	16cc\LL	.
.	32a\L	.
.	32b\JJJ	.
.	16qdd/	.
8G\ 8A 8c	16cc\LL	.
.	32b\L	.
.	32a\JJJ	.
=36	=36	=36
!	!LO:TUP:a:problem:klamra łukowa	!
4G\ 4B	24dd\LL	.
.	24b\	.
.	24cc\	.
.	24dd\	.
.	24ee\	.
.	24ff#\JJ	.
4r	32gg\LLL	.
.	32aa\	.
.	32bb\	.
.	32aa\JJJ	.
.	8gg\	.
=37	=37	=37
8r	16cc\LL	.
.	32a\L	.
.	32b\JJJ	.
.	16qdd/	.
8F#\ 8A 8d	16cc\LL	.
.	32b\L	.
.	32a\JJJ	.
8r	16b\LL	.
.	32g\L	.
.	32a\JJJ	.
.	16qcc/	.
8G\ 8B 8d	16b\LL	.
.	32a\L	.
.	32g\JJJ	.
=38	=38	=38
8DD/ 8FF# 8AA 8D	32a/LLL	.
.	32dd/	.
.	32a/	.
.	32f#/JJJ	.
8r	32d/LLL	.
.	32f#/	.
.	32d/	.
.	32A/JJJ	.
32rAA	8F#</	.
32D\LLL	.	.
32AA\	.	.
32FF#\JJJ	.	.
8DD/	8r<	.
!!LO:LB:g=original	!	!
=39	=39	=39
8r	16b/LL	.
.	32g/L	.
.	32a/JJJ	.
.	16qcc/	.
8G\ 8B	16b/LL	.
.	32a/L	.
.	32g/JJJ	.
8r	16cc/LL	.
.	32a/L	.
.	32b/JJJ	.
.	16qdd/	.
8D\ 8F# 8A	16cc/LL	.
.	32b/L	.
.	32a/JJJ	.
=40	=40	=40
!	!LO:TUP:a:problem:klamra łukowa	!
8r	24dd\LL	.
.	24b\	.
.	24cc\	.
8BB/ 8G	24dd\	.
.	24ee\	.
.	24ff#\JJ	.
!	!LO:TUP:a:problem:klamra łukowa	!
8r	24gg\LL	.
.	24bb\	.
.	24aa\	.
8C/ 8E 8G	24gg\	.
.	24ff#\	.
.	24ee\JJ	.
=41	=41	=41
8r	16gg\LL	.
.	32dd\L	.
.	32cc#X\JJJ	.
.	16qee/	.
8D\ 8G 8B	16dd\LL	.
.	32b\L	.
.	32g\JJJ	.
8r	16a\LL	.
.	32cc#\L	.
.	32b\JJJ	.
.	16qdd/	.
8D\ 8A 8c	16cc#/LL	.
.	32a/L	.
.	32f#/JJJ	.
=42	=42	=42
8GG/ 8BB 8D 8G	32g/LLL	.
.	32dd/	.
.	32b/	.
.	32g/JJJ	.
8r	32d/LLL	.
.	32b/	.
.	32g/	.
.	32d/JJJ	.
32r	8B/	.
(32G\LLL	.	.
32D\	.	.
32BB\JJJ)	.	.
8GG/	8r	.
=43:|!|:	=43:|!|:	=43:|!|:
8r	16dd\LL	.
.	32a\L	.
.	32b\JJJ	.
.	16qdd/	.
8F#\ 8A 8d	16cc\LL	.
.	32b\L	.
.	32a\JJJ	.
8r	16aa\LL	.
.	32a\L	.
.	32b\JJJ	.
.	16qdd/	.
8F#\ 8A 8d	16cc\LL	.
.	32b\L	.
.	32a\JJJ	.
=44	=44	=44
!	!LO:TX:t=P:problem:mixed beam	!
8r	16bb\LL	.
.	32a/L	.
.	32b/JJJ	.
.	16qcc/	.
8G\ 8B 8d	(16b/LL	.
.	32a/L	.
.	32g/JJJ)	.
!!LO:LB:g=original	!	!
8r	16ee\LL	.
.	32cc\L	.
.	32dd\JJJ	.
.	16qff#/	.
8G\ 8c 8e	16ee\LL	.
.	32dd\L	.
.	32cc\JJJ	.
=45	=45	=45
8r	16dd\LL	.
.	32b\L	.
.	32cc\JJJ	.
.	16qee/	.
8G\ 8B 8d	16dd\LL	.
.	32cc\L	.
.	32b\JJJ	.
!	!LO:TUP:a:problem:klamra łukowa	!
8r	24ee\LL	.
.	24gg\	.
.	24ff#\	.
8C\ 8E 8A	24ee\	.
.	24dd\	.
.	24cc\JJ	.
=46	=46	=46
!	!LO:TUP:a:problem:klamra łukowa	!
8r	24b\LL	.
.	24dd\	.
.	24cc#X\	.
8D\ 8G 8B	24dd\	.
.	24ccn\	.
.	24b\JJ	.
32r	8a/	.
32D/LLL	.	.
32AA/	.	.
32FF#/JJJ	.	.
8DD/	8r	.
=47	=47	=47
8r	16b/LL	.
.	32g/L	.
.	32a/JJJ	.
.	16qcc/	.
8G\ 8B	(16b/LL	.
.	32a/L	.
.	32g/JJJ)	.
8r	16cc/LL	.
.	32a/L	.
.	32b/JJJ	.
.	16qdd/	.
8D\ 8F# 8A	(16cc/LL	.
.	32b/L	.
.	32a/JJJ)	.
=48	=48	=48
!	!LO:TUP:a:problem:klamra łukowa	!
8r	24dd\LL	.
.	24b\	.
.	24cc\	.
8BB\ 8G	24dd\	.
.	24ee\	.
.	24ff#\JJ	.
!	!LO:TUP:a:problem:klamra łukowa	!
8r	24gg\LL	.
.	24bb\	.
.	24aa\	.
8C\ 8E 8G	24gg\	.
.	24ff#\	.
.	24ee\JJ	.
=49	=49	=49
8r	16gg\LL	.
.	32dd\L	.
.	32cc#X\JJJ	.
.	16qee/	.
8D\ 8G 8B	16dd\LL	.
.	32b\L	.
.	32g\JJJ	.
8r	16a/LL	.
.	32cc#/L	.
.	32b/JJJ	.
.	16qdd/	.
8D\ 8A 8c	16cc#/LL	.
.	32a/L	.
.	32f#/JJJ	.
=50	=50	=50
8GG/ 8BB 8D 8G	32g/LLL	.
.	32dd/	.
.	32b/	.
.	32g/JJJ	.
8r	32d/LLL	.
.	32b/	.
.	32g/	.
.	32d/JJJ	.
32r	8B/	.
32G\LLL	.	.
32D\	.	.
32BB\JJJ	.	.
8GG/	8r	.
!!LO:PB:g=original	!	!
=51:|!	=51:|!	=51:|!
*clefF4	*clefG2	*
*k[f#]	*k[f#]	*
*M2/4	*M2/4	*
*Xtuplet	*Xtuplet	*
!	!LO:TX:a:B:t=War. 3	!
*	*	*
24G\LL	(16.gg\LL	.
24B\	.	.
24d\JJ	.	.
.	32bb\JJk)	.
24G\LL	8r	.
24B\	.	.
24d\JJ	.	.
24A\LL	(16.ff#\LL	.
24c\	.	.
24d\JJ	.	.
.	32aa\JJk)	.
24A\LL	8r	.
24c\	.	.
24d\JJ	.	.
=52	=52	=52
24G\LL	24bb\LL	.
24B\	24gg\	.
24d\JJ	24dd\JJ	.
24G\LL	24eee\LL	.
24c\	24ccc\	.
24e\JJ	24gg\JJ	.
24G\LL	24ddd\LL	.
24B\	24bb\	.
24d\JJ	24gg\JJ	.
24G\LL	24bb\LL	.
24B\	24gg\	.
24d\JJ	24dd\JJ	.
=53	=53	=53
24G\LL	(16.gg\LL	.
24B\	.	.
24d\JJ	.	.
.	32bb\JJk)	.
24BB/LL	8r	.
24D/	.	.
24G/JJ	.	.
24C/LL	(16.eee\LL	.
24E/	.	.
24A/JJ	.	.
.	32ccc\JJk)	.
24C#X/LL	(16.bb\LL	.
24E/	.	.
24G/JJ	.	.
.	32gg\JJk)	.
=54	=54	=54
24D/LL	8r	.
24G/	.	.
24B/JJ	.	.
24D/LL	(16.bb\LL	.
24G/	.	.
24B/JJ	.	.
.	32ddd\JJk)	.
24D/LL	8ff#\ 8aa	.
24F#/	.	.
24A/JJ	.	.
24d/LL	8r	.
24c/	.	.
24A/JJ	.	.
=55	=55	=55
24G\LL	(16.gg\LL	.
24B\	.	.
24d\JJ	.	.
.	32bb\JJk)	.
24G\LL	8r	.
24B\	.	.
24d\JJ	.	.
24D\LL	(16.aa\LL	.
24F#\	.	.
24A\JJ	.	.
.	32ccc\JJk)	.
24D\LL	8r	.
24F#\	.	.
24A\JJ	.	.
!!LO:LB:g=original	!	!
=56	=56	=56
24BB/LL	24ddd\LL	.
24D/	24bb\	.
24G/JJ	24gg\JJ	.
24BB/LL	24ddd\LL	.
24D/	24bb\	.
24G/JJ	24gg\JJ	.
24BB/LL	24ddd\LL	.
24D/	24bb\	.
24G/JJ	24gg\JJ	.
24C/LL	24ccc\LL	.
24E/	24aa\	.
24A/JJ	24ee\JJ	.
=57	=57	=57
24D/LL	24bb\LL	.
24G/	24gg\	.
24B/JJ	24dd\JJ	.
24D/LL	24bb\LL	.
24G/	24gg\	.
24B/JJ	24dd\JJ	.
24D/LL	24aa\LL	.
24A/	24ff#\	.
24c/JJ	24dd\JJ	.
24D/LL	24aa\LL	.
24A/	24ff#\	.
24c/JJ	24dd\JJ	.
=58	=58	=58
24GG/LL	24gg\LL	.
24BB/	24dd\	.
24D/JJ	24b\JJ	.
24G\LL	24gg\LL	.
24B\	24dd\	.
24d\JJ	24b\JJ	.
8g\	8b\ 8gg	.
8r	8r	.
=59:|!|:	=59:|!|:	=59:|!|:
24D\LL	(16.aa\LL	.
24F#\	.	.
24A\JJ	.	.
.	32ccc\JJk)	.
24D\LL	8r	.
24F#\	.	.
24A\JJ	.	.
24D\LL	(16.ff#\LL	.
24A\	.	.
24c\JJ	.	.
.	32aa\JJk)	.
24D\LL	8r	.
24A\	.	.
24c\JJ	.	.
=60	=60	=60
24G\LL	(16.gg\LL	.
24B\	.	.
24d\JJ	.	.
.	32bb\JJk)	.
24G\LL	8r	.
24B\	.	.
24d\JJ	.	.
24G\LL	(16.eee\LL	.
24c\	.	.
24e\JJ	.	.
.	32ccc\JJk)	.
24G\LL	8r	.
24c\	.	.
24e\JJ	.	.
=61	=61	=61
24G\LL	(16.ddd\LL	.
24B\	.	.
24d\JJ	.	.
.	32bb\JJk)	.
24BB/LL	8r	.
24D/	.	.
24G/JJ	.	.
24C/LL	(16.eee\LL	.
24E/	.	.
24A/JJ	.	.
.	32ccc\JJk)	.
24C#X/LL	(16.bb\LL	.
24E/	.	.
24G/JJ	.	.
.	32gg\JJk)	.
!!LO:LB:g=original	!	!
=62	=62	=62
24D\LL	8r	.
24G\	.	.
24B\JJ	.	.
24D\LL	(16.bb\LL	.
24G\	.	.
24B\JJ	.	.
.	32ddd\JJk)	.
24D\LL	8ff#\ 8aa	.
24F#\	.	.
24A\JJ	.	.
24d\LL	8r	.
24c\	.	.
24A\JJ	.	.
=63	=63	=63
24G\LL	(16.gg\LL	.
24B\	.	.
24d\JJ	.	.
.	32bb\JJk)	.
24G\LL	8r	.
24B\	.	.
24d\JJ	.	.
24D\LL	(16.aa\LL	.
24F#\	.	.
24A\JJ	.	.
.	32ccc\JJk)	.
24D\LL	8r	.
24F#\	.	.
24A\JJ	.	.
=64	=64	=64
24BB/LL	24ddd\LL	.
24D/	24bb\	.
24G/JJ	24gg\JJ	.
24BB/LL	24ddd\LL	.
24D/	24bb\	.
24G/JJ	24gg\JJ	.
24BB/LL	24ddd\LL	.
24D/	24bb\	.
24G/JJ	24gg\JJ	.
24C/LL	24ccc\LL	.
24E/	24aa\	.
24A/JJ	24ee\JJ	.
=65	=65	=65
24D\LL	24bb\LL	.
24G\	24gg\	.
24B\JJ	24dd\JJ	.
24D\LL	24bb\LL	.
24G\	24gg\	.
24B\JJ	24dd\JJ	.
24D\LL	24aa\LL	.
24A\	24ff#\	.
24c\JJ	24dd\JJ	.
24D\LL	24aa\LL	.
24A\	24ff#\	.
24c\JJ	24dd\JJ	.
=66	=66	=66
24GG/LL	24gg\LL	.
24BB/	24dd\	.
24D/JJ	24b\JJ	.
24G\LL	24gg\LL	.
24B\	24dd\	.
24d\JJ	24b\JJ	.
8g\	8b\ 8gg	.
8r	8r	.
!!LO:LB:g=original	!	!
=67:|!	=67:|!	=67:|!
*clefF4	*clefG2	*
*k[b-e-]	*k[b-e-]	*
*M2/4	*M2/4	*
!	!LO:TX:a:B:t=War. 4	!
4GG:/ 4BB-: 4D: 4G:	4d:/ 4g: 4b-:	.
4DD:/ 4FF#X: 4AA: 4D:	8.f#X:/L 8.a: 8.cc:	.
.	16a/Jk	.
=68	=68	=68
4GGG:/ 4BBB-: 4DD: 4GG:	8.g:/L 8.b-: 8.dd:	.
.	16ee-/Jk	.
4GG:/ 4BB-: 4D: 4G:	4g:/ 4b-: 4dd:	.
=69	=69	=69
16G\	16r	.
16r	16b-\ 16dd	.
16C/	16r	.
16r	16cc\ 16ee-	.
16C/	16r	.
16r	16a\ 16cc	.
16C#X/	16r	.
16r	16g\ 16b-	.
=70	=70	=70
4D:\ 4G: 4B-:	4d:/ 4g: 4b-:	.
8D:\ 8F#X: 8A:	8d:/ 8f#X: 8a:	.
8r	8r	.
=71	=71	=71
4GG:/ 4BB-: 4D: 4G:	4d:/ 4g: 4b-:	.
4FF:/ 4AA: 4C: 4F:	8.e-/L 8.a 8.cc	.
.	16a/Jk	.
=72	=72	=72
4DD:/ 4FF: 4BB-: 4D:	4f:\ 4b-: 4dd: 4ff:	.
4EE-:/ 4GG: 4BB-: 4E-:	4g:\ 4b-: 4ee-: 4gg:	.
=73	=73	=73
16F\	16r	.
16r	16dd\ 16ff	.
16F\	16r	.
16r	16b-\ 16dd	.
16FF/	16r	.
16r	16cc\ 16ee-	.
16FF/	16r	.
16r	16a\ 16cc	.
=74	=74	=74
16BB-/	4e-:/ 4a: 4cc:	.
16r	.	.
16BBB-/	.	.
16r	.	.
8BB-/	8d/ 8f 8b-	.
8r	8r	.
=75:|!|:	=75:|!|:	=75:|!|:
4FF:/ 4AA: 4C: 4F:	4f:\ 4a: 4cc:	.
4FF:/ 4AA: 4C: 4F:	8.f:\L 8.a: 8.cc: 8.ff:	.
.	16ee-\Jk	.
!!LO:PB:g=original	!	!
=76	=76	=76
4BB-:/ 4D: 4F: 4B-:	8.f:\L 8.b-: 8.dd:	.
.	16b-\Jk	.
4GG:/ 4BB-: 4D: 4G:	8.g:\L 8.b-: 8.dd:	.
.	16b-\Jk	.
=77	=77	=77
4FF:/ 4AA-X: 4D: 4F:	8.f:\L 8.a-X: 8.bn: 8.dd:	.
.	16b\Jk	.
16EEn/ 16En	16r	.
16r	16g\ 16cc	.
16EE-X/ 16E-X	16r	.
16r	16g\ 16cc#X	.
=78	=78	=78
16D/	(4en:/ 4g: 4cc#X:	.
16r	.	.
16DD/	.	.
16r	.	.
(16D/LL	8f#X/) 8a 8dd	.
16C/	.	.
16BB-/	8r	.
16AA/JJ)	.	.
=79	=79	=79
4GG:/ 4BB-: 4D: 4G:	4d:/ 4g: 4b-:	.
4DD:/ 4FF#X: 4AA: 4D:	8.f#X:/L 8.a: 8.cc:	.
.	16a/Jk	.
=80	=80	=80
4BBB-:/ 4DD: 4GG: 4BB-:	4d:/ 4g: 4b-: 4dd:	.
4CC:/ 4EE-: 4GG: 4C:	4e-:/ 4g: 4cc: 4ee-:	.
=81	=81	=81
16D/	16r	.
16r	16b-/ 16dd	.
16D/	16r	.
16r	16g/ 16b-	.
16DD/	16r	.
16r	16a/ 16cc	.
16DD/	16r	.
16r	16f#X/ 16a	.
=82	=82	=82
16GG/	(>4c:/ 4f#X: 4a:	.
16r	.	.
16G\	.	.
16r	.	.
8GG/	8B-/) 8d 8g	.
8r	8r	.
!!LO:LB:g=original	!	!
=83:|!	=83:|!	=83:|!
*clefF4	*clefG2	*
*k[f#]	*k[f#]	*
*M2/4	*M2/4	*
!	!LO:TX:a:B:t=War. 5	!
(4G\ 4B	32b/LLL	.
.	32g/	.
.	32f#/	.
.	32g/JJJ	.
.	32b/LLL	.
.	32g/	.
.	32f#/	.
.	32g/JJJ	.
4A\) 4c	32cc/LLL	.
.	32g/	.
.	32f#/	.
.	32g/JJJ	.
.	32cc/LLL	.
.	32g/	.
.	32f#/	.
.	32g/JJJ	.
=84	=84	=84
8.B\L 8.d	32dd/LLL	.
.	32g/	.
.	32f#/	.
.	32g/JJJ	.
.	32gg/LLL	.
.	32g/	.
16c\Jk 16e	32ee/	.
.	32g/JJJ	.
8B\ 8d	32dd/LLL	.
.	32g/	.
.	32f#/	.
.	32g/JJJ	.
8r	32dd/LLL	.
.	32g/	.
.	32f#/	.
.	32g/JJJ	.
=85	=85	=85
8B\L 8d	32dd/LLL	.
.	32g/	.
.	32f#/	.
.	32g/JJJ	.
8c\ 8e	32ee/LLL	.
.	32g/	.
.	32f#/	.
.	32g/JJJ	.
8A\ 8c	32cc/LLL	.
.	32g/	.
.	32f#/	.
.	32g/JJJ	.
8G\J 8B	32b/LLL	.
.	32g/	.
.	32f#/	.
.	32g/JJJ	.
=86	=86	=86
(4G\ 4B	32b/LLL	.
.	32g/	.
.	32f#/	.
.	32g/JJJ	.
.	32dd/LLL	.
.	32g/	.
.	32f#/	.
.	32g/JJJ	.
8F#\) 8A	32a/LLL	.
.	32d/	.
.	32c#X/	.
.	32d/JJJ	.
8r	32cc/LLL	.
.	32d/	.
.	32c#/	.
.	32d/JJJ	.
=87	=87	=87
(4G\ 4B	32b/LLL	.
.	32g/	.
.	32f#/	.
.	32g/JJJ	.
.	32b/LLL	.
.	32g/	.
.	32f#/	.
.	32g/JJJ	.
4A\) 4c	32cc/LLL	.
.	32g/	.
.	32f#/	.
.	32g/JJJ	.
.	32cc/LLL	.
.	32g/	.
.	32f#/	.
.	32g/JJJ	.
!!LO:LB:g=original	!	!
=88	=88	=88
4B\ 4d	32dd/LLL	.
.	32g/	.
.	32f#/	.
.	32g/JJJ	.
!	!LO:TX:t=P:problem:mixed beam	!
.	32gg\LLL	.
.	32g/	.
.	32f#/	.
.	32g/JJJ	.
8c\L 8e	32ee/LLL	.
.	32g/	.
.	32f#/	.
.	32g/JJJ	.
8A\J 8c	32cc/LLL	.
.	32g/	.
.	32f#/	.
.	32g/JJJ	.
=89	=89	=89
4G\ 4B	32b/LLL	.
.	32d/	.
.	32c#X/	.
.	32d/JJJ	.
.	32b/LLL	.
.	32d/	.
.	32c#/	.
.	32d/JJJ	.
4D\ 4A	32dd/LLL	.
.	32d/	.
.	32c#/	.
.	32d/JJJ	.
.	32f#/LLL	.
.	32d/	.
.	32c#/	.
.	32d/JJJ	.
=90	=90	=90
4BB/ 4G	32g/LLL	.
.	32d/	.
.	32c#X/	.
.	32d/JJJ	.
.	32g/LLL	.
.	32B/	.
.	32A#X/	.
.	32B/JJJ	.
4r	8G/	.
.	8r	.
=91:|!|:	=91:|!|:	=91:|!|:
(4F#\ 4A	32a/LLL	.
.	32d/	.
.	32c#X/	.
.	32d/JJJ	.
.	32dd/LLL	.
.	32d/	.
.	32c#/	.
.	32d/JJJ	.
4A\) 4c	32f#/LLL	.
.	32d/	.
.	32c#/	.
.	32d/JJJ	.
.	32a/LLL	.
.	32d/	.
.	32c#/	.
.	32d/JJJ	.
=92	=92	=92
*^	*	*
8B/L	2G\	32b/LLL	.
.	.	32g/	.
.	.	32f#/	.
.	.	32g/JJJ	.
!	!	!LO:TX:t=P:problem:mixed beam	!
8e/J	.	32gg\LLL	.
.	.	32g/	.
.	.	32f#/	.
.	.	32g/JJJ	.
!	!	!LO:TX:t=P:problem:mixed beam	!
8d/L	.	32ff#\LLL	.
.	.	32g/	.
.	.	32f#/	.
.	.	32g/JJJ	.
!	!	!LO:TX:t=P:problem:mixed beam	!
8c/J	.	32ee\LLL	.
.	.	32g/	.
.	.	32f#/	.
.	.	32g/JJJ	.
=93	=93	=93	=93
8B/L	8G\L	32dd/LLL	.
.	.	32g/	.
.	.	32f#/	.
.	.	32g/JJJ	.
8d#X/J	8B\J	32dd#X/LLL	.
.	.	32g/	.
.	.	32f#/	.
.	.	32g/JJJ	.
8e/L	8c\L	32ee/LLL	.
.	.	32g/	.
.	.	32f#/	.
.	.	32g/JJJ	.
16c/L	16A\L	32cc/LLL	.
.	.	32g/	.
16B/JJ	16G\JJ	32b/	.
.	.	32g/JJJ	.
*v	*v	*	*
!!LO:LB:g=original	!	!
=94	=94	=94
(4G\ 4B	32b/LLL	.
.	32g/	.
.	32f#/	.
.	32g/JJJ	.
.	32dd/LLL	.
.	32g/	.
.	32f#/	.
.	32g/JJJ	.
8F#\) 8A	32a/LLL	.
.	32d/	.
.	32c#X/	.
.	32d/JJJ	.
8r	32cc/LLL	.
.	32d/	.
.	32c#/	.
.	32d/JJJ	.
=95	=95	=95
4G\ 4B	32b/LLL	.
.	32g/	.
.	32f#/	.
.	32g/JJJ	.
.	32b/LLL	.
.	32g/	.
.	32f#/	.
.	32g/JJJ	.
4A\ 4c	32cc/LLL	.
.	32g/	.
.	32f#/	.
.	32g/JJJ	.
.	32cc/LLL	.
.	32g/	.
.	32f#/	.
.	32g/JJJ	.
=96	=96	=96
4B\ 4d	32dd/LLL	.
.	32g/	.
.	32f#/	.
.	32g/JJJ	.
!	!LO:TX:t=P:problem:mixed beam	!
.	32gg\LLL	.
.	32g/	.
.	32f#/	.
.	32g/JJJ	.
8c\L 8e	32ee/LLL	.
.	32g/	.
.	32f#/	.
.	32g/JJJ	.
8A\J 8c	32cc/LLL	.
.	32g/	.
.	32f#/	.
.	32g/JJJ	.
=97	=97	=97
4G\ 4B	32b/LLL	.
.	32d/	.
.	32c#X/	.
.	32d/JJJ	.
.	32b/LLL	.
.	32d/	.
.	32c#/	.
.	32d/JJJ	.
4D\ 4A	32dd/LLL	.
.	32d/	.
.	32c#/	.
.	32d/JJJ	.
.	32f#/LLL	.
.	32d/	.
.	32c#/	.
.	32d/JJJ	.
=98	=98	=98
4BB\ 4G	32g/LLL	.
.	32d/	.
.	32c#X/	.
.	32d/JJJ	.
.	32g/LLL	.
.	32B/	.
.	32A#X/	.
.	32B/JJJ	.
4r	8G/	.
.	8r	.
!!LO:PB:g=original	!	!
=99:|!	=99:|!	=99:|!
*clefF4	*clefG2	*
*k[f#]	*k[f#]	*
*M2/4	*M2/4	*
!	!LO:TX:a:B:t=War. 6	!
32r	4b\ 4gg 4bb	.
32GG/LLL	.	.
(32BB/	.	.
32D/JJJ	.	.
32G/LLL	.	.
32B/	.	.
32d/	.	.
32B/JJJ)	.	.
32r	4cc\ 4aa 4ccc	.
32DD/LLL	.	.
(32FF#/	.	.
32AA/JJJ	.	.
32D/LLL	.	.
32F#/	.	.
32A/	.	.
32F#/JJJ)	.	.
=100	=100	=100
32r	8.dd\L 8.bb 8.ddd	.
32GGG/LLL	.	.
32BBB/	.	.
32DD/JJJ	.	.
32GG/LLL	.	.
32BB/	.	.
32D/	16ee\Jk 16ccc 16eee	.
32G/JJJ	.	.
32B/LLL	4dd\ 4bb 4ddd	.
32G/	.	.
32D/	.	.
32BB/JJJ	.	.
32GG/LLL	.	.
32BB/	.	.
32D/	.	.
32G/JJJ	.	.
=101	=101	=101
!LO:TX:t=P:problem:mixed beam	!	!
32GG/LLL	8dd\L 8bb 8ddd	.
32G\	.	.
32F#\	.	.
32G\JJJ	.	.
!LO:TX:t=P:problem:mixed beam	!	!
32GG/LLL	8ee\ 8ccc 8eee	.
32G\	.	.
32F#\	.	.
32G\JJJ	.	.
!LO:TX:t=P:problem:mixed beam	!	!
32C/LLL	8cc\ 8aa 8ccc	.
32c\	.	.
32B\	.	.
32c\JJJ	.	.
!LO:TX:t=P:problem:mixed beam	!	!
32C#X/LLL	8b\J 8gg 8bb	.
32c#X\	.	.
32B#X\	.	.
32c#\JJJ	.	.
=102	=102	=102
32r	(4b\ 4gg 4bb	.
32D\LLL	.	.
32G\	.	.
32B\JJJ	.	.
32d\LLL	.	.
(32B\	.	.
32G\	.	.
32D\JJJ	.	.
32AA/LLL	8a\) 8ff# 8aa	.
32D/	.	.
32AA/	.	.
32FF#/JJJ	.	.
8DD/)	8r	.
=103	=103	=103
32r	(4b\ 4gg 4bb	.
32GG/LLL	.	.
32BB/	.	.
32D/JJJ	.	.
32G\LLL	.	.
32B\	.	.
32d\	.	.
32B\JJJ	.	.
32r	4cc\) 4aa 4ccc	.
32DD/LLL	.	.
32FF#/	.	.
32AA/JJJ	.	.
32D\LLL	.	.
32F#\	.	.
32A\	.	.
32F#\JJJ	.	.
!!LO:LB:g=original	!	!
=104	=104	=104
32r	4dd\ 4bb 4ddd	.
32GGG/LLL	.	.
32BBB/	.	.
32DD/JJJ	.	.
32GG/LLL	.	.
32BB/	.	.
32D/	.	.
32G/JJJ	.	.
32r	4ee\ 4ccc 4eee	.
(<32CC/LLL	.	.
32EE/	.	.
32GG/JJJ	.	.
32C\LLL	.	.
32E\	.	.
32G\	.	.
32c\JJJ)	.	.
=105	=105	=105
32r	4b\ 4gg 4bb	.
(<32DD/LLL	.	.
32GG/	.	.
32BB/JJJ	.	.
32D\LLL	.	.
32G\	.	.
32B\	.	.
32d\JJJ)	.	.
32r	4a\ 4ff# 4aa	.
32DD/LLL	.	.
32FF#/	.	.
32AA/JJJ	.	.
32D\LLL	.	.
32F#\	.	.
32A\	.	.
32d\JJJ	.	.
=106	=106	=106
32r	8g\L 8b 8gg	.
32GG/LLL	.	.
32BB/	.	.
32D/JJJ	.	.
32G\LLL	8b\J 8dd 8bb	.
32B\	.	.
32d\	.	.
32B\JJJ	.	.
32G/LLL	4g\ 4b 4gg	.
32D/	.	.
32BB/	.	.
32D/JJJ	.	.
8GG/	.	.
=107:|!|:	=107:|!|:	=107:|!|:
32r	4a\ 4ff# 4aa	.
(32D\LLL	.	.
32F#\	.	.
32A\JJJ	.	.
32d\LLL	.	.
32f#\	.	.
32a\	.	.
32f#\JJJ)	.	.
32D\LLL	8dd\L 8bb 8ddd	.
32d\	.	.
32c#X\	.	.
32d\JJJ	.	.
32D#X\LLL	8cc\J 8aa 8ccc	.
32d#X\	.	.
32c#X\	.	.
32d#\JJJ	.	.
=108	=108	=108
32r	8b\L 8gg 8bb	.
32E\LLL	.	.
32G\	.	.
32B\JJJ	.	.
32e\LLL	8g\ 8ee 8gg	.
32B\	.	.
32G\	.	.
32E\JJJ	.	.
!LO:TX:t=P:problem:mixed beam	!	!
32BB/LLL	8f#\ 8dd#X 8ff#	.
32B\	.	.
32A\	.	.
32B\JJJ	.	.
!LO:TX:t=P:problem:mixed beam	!	!
32C/LLL	8e\J 8cc 8ee	.
32c\	.	.
32B#X\	.	.
32c\JJJ	.	.
=109	=109	=109
!LO:TX:t=P:problem:mixed beam	!	!
32GG/LLL	4d/ 4b 4dd	.
32G\	.	.
32F#\	.	.
32G\JJJ	.	.
!LO:TX:t=P:problem:mixed beam	!	!
32GG/LLL	.	.
32G\	.	.
32F#\	.	.
32G\JJJ	.	.
32CC/LLL	8e\L 8cc 8ee	.
32C/	.	.
32BB/	.	.
32C/JJJ	.	.
32CC/LLL	8c\J 8a 8cc	.
32C/	.	.
32BB/	.	.
32C/JJJ	.	.
!!LO:LB:g=original	!	!
=110	=110	=110
32DD/LLL	4B/ 4g 4b	.
32D/	.	.
32C#X/	.	.
32D/JJJ	.	.
32DD/LLL	.	.
32D/	.	.
32C#X/	.	.
32D/JJJ	.	.
32DD/LLL	8A/ 8f# 8a	.
32D/	.	.
32AA/	.	.
32FF#/JJJ	.	.
8DD/	8r	.
=111	=111	=111
32r	4b\ 4gg 4bb	.
(<32GG/LLL	.	.
32BB/	.	.
32D/JJJ	.	.
32G\LLL	.	.
32B\)	.	.
32d\	.	.
32B\JJJ	.	.
32r	4cc\ 4aa 4ccc	.
(<32DD/LLL	.	.
32FF#/	.	.
32AA/JJJ	.	.
32D\LLL	.	.
32F#\)	.	.
32A\	.	.
32F#\JJJ	.	.
=112	=112	=112
32r	4dd\ 4bb 4ddd	.
(32GGG/LLL	.	.
32BBB/	.	.
32DD/JJJ	.	.
32GG/LLL	.	.
32BB/	.	.
32D/	.	.
32G/JJJ)	.	.
32r	4ee\ 4ccc 4eee	.
(32CC/LLL	.	.
32EE/	.	.
32GG/JJJ	.	.
32C/LLL	.	.
32E/	.	.
32G/	.	.
32c/JJJ)	.	.
=113	=113	=113
32r	4b\ 4gg 4bb	.
(32DD/LLL	.	.
32GG/	.	.
32BB/JJJ	.	.
32D/LLL	.	.
32G/	.	.
32B/	.	.
32d/JJJ)	.	.
32r	4a\ 4ff# 4aa	.
(32DD/LLL	.	.
32FF#/	.	.
32AA/JJJ	.	.
32D/LLL	.	.
32F#/	.	.
32A/	.	.
32d/JJJ)	.	.
=114	=114	=114
32r	8g\L 8b 8gg	.
(32GG/LLL	.	.
32BB/	.	.
32D/JJJ	.	.
32G\LLL	8b\J 8dd 8bb	.
32B\	.	.
32d\	.	.
32B\JJJ)	.	.
32G/LLL	4g\ 4b 4gg	.
32D/	.	.
32BB/	.	.
32D/JJJ	.	.
8GG/	.	.
=115:|!	=115:|!	=115:|!
2EE/ 2E	32r	.
!	!LO:TX:b:Bi:t=rf	!
.	32e/LLL	.
.	32g/	.
.	32cc#X/JJJ	.
.	32ee\LLL	.
.	32gg\	.
.	32ccc#X\	.
.	32eee\JJJ	.
.	8gg\ 8ccc#	.
.	8r	.
!!LO:LB:g=original	!	!
=116	=116	=116
8DD/L 8D	16r	>
.	16ff#\ 16ddd	.
8EE-X/ 8E-X	16r	.
.	16gg\ 16ccc#X	.
8DD/ 8D	16r	.
.	16ff#\ 16ddd	.
8EE-/J 8E-	16r	.
.	16gg\ 16ccc#	]
=117	=117	=117
!	!LO:TX:b:i:t=a piaczre	!
4DD;/ 4D	4een;\ 4gg 4ccc#X	.
.	16qqddd\KL	.
.	16qqeee\	.
.	16qqddd\J	.
8DD/ 8D	8ff#;\ 8aa 8ddd	.
8r	8r	.
=118||	=118||	=118||
*M2/4	*M2/4	*
!	!LO:TX:a:B:t=Allegro	!
!	!LO:TX:b:i:t=Coda	!
8r	(16gg\LL	.
.	16ff#\	.
8G\ 8B	16gg\	.
.	16bb\JJ)	.
8r	8ddd\L	.
8G\ 8B	8ddd\J	.
=119	=119	=119
8r	16gg\LL	.
.	16ff#\	.
8G\ 8B	16gg\	.
.	16bb\JJ	.
8r	8dd\L	.
8G\ 8B	8dd\J	.
=120	=120	=120
8A\L 8c	8ff#\L	.
8A\ 8c	8ff#\J	.
8B\ 8d	16aa\LL	.
.	16gg\	.
8B\J 8d	16ff#\	.
.	16gg\JJ	.
=121	=121	=121
4D\ 4F# 4A	16aa\LL	.
.	16gg\	.
.	16ff#\	.
.	16ee\JJ	.
4r	16cc#X\LL	.
.	16dd\	.
.	16ee\	.
.	16ff#\JJ	.
=122	=122	=122
8r	(16gg\LL	.
.	16ff#\	.
8G\ 8B	16gg\	.
.	16bb\JJ)	.
8r	8ddd\L	.
8G\ 8B	8ddd\J	.
=123	=123	=123
8r	16gg\LL	.
.	16ff#\	.
8G\ 8B	16gg\	.
.	16bb\JJ	.
8r	8dd\L	.
8G\ 8B	8dd\J	.
!!LO:PB:g=original	!	!
=124	=124	=124
8C\L 8E 8A	8aa\L	.
8C\ 8E 8A	8aa\J	.
8D\ 8A 8c	16dd\LL	.
.	16ee\	.
8D\J 8A 8c	16ff#\	.
.	16dd\JJ	.
=125	=125	=125
4G\ 4B	16gg\LL	.
.	16aa\	.
.	16gg\	.
.	16ff#\JJ	.
4r	8gg\L	.
.	8gg#X\J	.
=126	=126	=126
8F#\L 8d	8aa\L	.
8F#\ 8d	8aa\J	.
8G\ 8d	(8bb\L	.
8G\J 8d	16aa\L	.
.	16bb\JJ)	.
=127	=127	=127
8A\L 8c	8ccc\L	.
8A\J 8c	8ccc\J	.
8B\L 8d	8bb\L	.
8B\J 8d	8bb\J	.
=128	=128	=128
!	!LO:TX:b:i:t=Morcando	!
8c\L 8e	8aa\L	.
8c\ 8e	8aa\J	.
.	16qqbb/	.
8c#X\ 8e	8aa\L	.
8c#\J 8e	16gg#X\L	.
.	16aa\JJ	.
=129	=129	=129
4d;\ 4f#	4aa;\	.
4r	4r	.
=130	=130	=130
!	!LO:TX:a:i:t=All&colon;	!
8r	16gg\LL	.
.	16ff#\	.
8G\ 8B	16gg\	.
.	16bb\JJ	.
8r	8ddd\L	.
8G\ 8B	8ddd\J	.
=131	=131	=131
8r	16gg\LL	.
.	16ff#\	.
8G\ 8B	16gg\	.
.	16bb\JJ	.
8r	8dd\L	.
8G\ 8B	8dd\J	.
=132	=132	=132
8C\L 8E 8A	8aa\L	.
8C\ 8E 8A	8aa\J	.
8D\ 8A 8c	16dd\LL	.
.	16ee\	.
8D\J 8A 8c	16ff#\	.
.	16dd\JJ	.
!!LO:LB:g=original	!	!
=133	=133	=133
4G\ 4B	4gg\	.
8B\L 8d	4r	.
8B\J 8d	.	.
=134	=134	=134
8c\L 8e	4r	.
8c\ 8e	.	.
8A\ 8c	16ff#\LL	.
.	16gg\	.
8A\J 8c	16aa\	.
.	16ff#\JJ	.
=135	=135	=135
4G\ 4B	4gg\	.
4r	8gg\L	.
.	8gg\J	.
=136	=136	=136
4r	8eee\L	.
.	8eee\J	.
*clefG2	*	*
8f#/L 8a	16ccc\LL	.
.	16ddd\	.
8f#/J 8a	16eee\	.
.	16ccc\JJ	.
=137	=137	=137
!LO:TX:t=P:problem:łuk łączący dwie grupy szesnastkowe	!	!
(16g/LL 16b	4bb\	.
16dd/	.	.
16g/ 16b	.	.
16dd/JJ	.	.
*rep	*	*
16g/LL 16b	8bb\L	.
16dd/	.	.
16g/ 16b	8bb\J	.
16dd/JJ)	.	.
*Xrep	*	*
=138	=138	=138
*tremolo	*	*
(16f#/LL 16cc	8aa\L	.
16dd/	.	.
16f#/ 16cc	8aa\J	.
16dd/	.	.
16f#/ 16cc	(16aa\LL	.
16dd/	16gg\	.
16f#/ 16cc	16aa\	.
16dd/JJ)	16bb\JJ)	.
=139	=139	=139
16g/LL 16b	4gg\	.
16dd/	.	.
16g/ 16b	.	.
16dd/	.	.
16g/ 16b	8bb\L	.
16dd/	.	.
16g/ 16b	8bb\J	.
16dd/JJ	.	.
=140	=140	=140
16f#/LL 16cc	8aa\L	.
16dd/	.	.
16f#/ 16cc	8aa\J	.
16dd/	.	.
16f#/ 16cc	16aa\LL	>
16dd/	16gg\	.
16f#/ 16cc	16aa\	.
16dd/JJ	16bb\JJ	.
=141	=141	=141
*Xtremolo	*	*
(16g/LL 16b	4gg\	.
16dd/	.	.
16g/ 16b	.	.
16dd/JJ	.	.
16f#/LL 16cc	(16aa\LL	.
16dd/	16gg\	.
16f#/ 16cc	16aa\	.
16dd/JJ)	16bb\JJ)	] pp
=142	=142	=142
2r;	2r;	.
*clefF4	*	*
!!LO:LB:g=original	!	!
=143	=143	=143
4r	4r	.
8B\L 8d	4r	.
8B\J 8d	.	.
=144	=144	=144
8c\L 8e	4r	.
8c\ 8e	.	.
!	!LO:TX:b:i:t=Dolce	!
8A\ 8c	16ff#\LL	.
.	16gg\	.
8A\J 8c	16aa\	.
.	16ff#\JJ	.
=145	=145	=145
4G\ 4B	4gg\	.
4r	8gg\L	.
.	8gg\J	.
=146	=146	=146
8CC/L 8C	8gg\L 8ggg	f
8CC/J 8C	8gg\J 8ggg	.
8D\L 8A 8c	(16ff#\LL	.
.	16gg\	.
8D\J 8A 8c	16aa\	.
.	16gg\JJ)	.
=147	=147	=147
8r	(16gg\LL	.
.	16ff#\	.
8G\ 8B	16gg\	.
.	16bb\JJ)	p
8r	8ddd\L	.
8G\ 8B	8ddd\J	.
=148	=148	=148
8r	16gg\LL	.
.	16ff#\	.
8G\ 8B	16gg\	.
.	16bb\JJ	.
8r	8dd\L	.
8G\ 8B	8dd\J	.
=149	=149	=149
8C\L 8E 8A	8aa\L	<
8C\ 8E 8A	8aa\J	.
8D\ 8A 8c	16dd\LL	.
.	16ee\	.
8D\J 8A 8c	16ff#\	.
.	16dd\JJ	[
=150	=150	=150
8GG/L 8G	(16b\LL 16gg	ff
.	16g\	.
8FF#/ 8F#	16b\ 16gg	.
.	16g\JJ	.
8GG/ 8G	16b\LL 16gg	.
.	16g\	.
8FFn/J 8Fn	16b\) 16gg	.
.	16g\JJ	.
=151	=151	=151
8EE/L 8E	(16b\LL 16gg	.
.	16g\	.
8DD#X/J 8D#X	16b\ 16gg	.
.	16g\JJ	.
8EE/L 8E	16b\LL 16gg	.
.	16g\	.
8DDn/J 8Dn	16b\ 16gg	.
.	16g\JJ)	.
=152	=152	=152
8CC/L 8C	(16b\LL 16gg	.
.	16g\	.
8BBB/J 8BB	16b\ 16gg	.
.	16g\JJ	.
8CC/L 8C	16b\LL 16gg	.
.	16g\	.
8CC#X/J 8C#X	16b\) 16gg	.
.	16g\JJ	.
!!LO:LB:g=original	!	!
=153	=153	=153
*	*^	*
8DD;/ 8D	8g;\ 8b 8gg	2ryy	.
8r	8r	.	.
8DD;/ 8D	8A;/ 8c 8f#	.	.
*	*	*	*
8r	8r	.	.
!	!	!LO:TX:t=P:problem: przednutki zapisane na wysokości 8r - błąd wyświetlania VHV po wpisaniu przednutek w odpowiedni token	!
.	.	16qqg/LL	.
.	.	16qqg#X/	.
.	.	16qqa/	.
.	.	16qqa#X/JJ	.
*	*v	*v	*
=154||	=154||	=154||
!	!LO:TX:a:i:t=Tempo Primo	!
!	!LO:TX:b:i:t=Dolce	!
4GG/ 4G	4g/ 4b	p
4DD/ 4D	8a/L 8cc	.
.	8f#/J 8a	.
=155	=155	=155
4BBB/ 4BB	4.d/ 4.g 4.dd	.
4CC/ 4C	.	.
.	8e/ 8a 8cc	.
=156	=156	=156
4DD/ 4D	4d/ 4g 4b	.
4DD/ 4D	4c/ 4f# 4a	.
=157	=157	=157
2GG/ 2G	2B/ 2d 2g	.
==	==	==
*-	*-	*-
!!!system-decoration: {(s1,s2)}
!!!RDF**kern: > = above
!!!RDF**kern: < = below
!!!ENC: Solarz Mateusz
!!!END: 2022-07-26
!!!ENC: Jan Barakat
!!!END: 2022-08-23
!!!YEC: Copyright 2022 Narodowy Instytut Fryderyka Chopina (https://polishscores.org)
!!!YEM: License CC-BY-4.0 (https://creativecommons.org/licenses/by/4.0)
